icon/pk/gymnastics.svg

<svg viewBox="0 0 48 48" fill="none" xmlns="http://www.w3.org/2000/svg" height="1em" width="1em">
  <path d="M24 22C26.7614 22 29 19.7614 29 17C29 14.2386 26.7614 12 24 12C21.2386 12 19 14.2386 19 17C19 19.7614 21.2386 22 24 22Z" fill="#2F88FF" stroke="black" stroke-width="4" stroke-miterlimit="2"/>
  <path d="M23 29L21 36L12 34L7 44" stroke="black" stroke-width="4" stroke-miterlimit="2" stroke-linecap="round" stroke-linejoin="round"/>
  <path d="M21 36L23 44H34" stroke="black" stroke-width="4" stroke-miterlimit="2" stroke-linecap="round" stroke-linejoin="round"/>
  <path d="M7 22.9998L23 28.9998L35 26.9998L41.04 22.0298" stroke="black" stroke-width="4" stroke-miterlimit="2" stroke-linecap="round" stroke-linejoin="round"/>
  <path d="M12 3.99985C26 1.99985 36 5.99985 44 14.9998" stroke="black" stroke-width="4" stroke-miterlimit="2" stroke-linecap="round" stroke-linejoin="round"/>
</svg>

<svg width="48" height="48" fill="none" xmlns="http://www.w3.org/2000/svg"><path d="M24 22a5 5 0 1 0 0-10 5 5 0 0 0 0 10Z" fill="#2F88FF" stroke="#000" stroke-width="4" stroke-miterlimit="2"/><path d="m23 29-2 7-9-2-5 10M21 36l2 8h11M7 23l16 6 12-2 6.04-4.97M12 4c14-2 24 2 32 11" stroke="#000" stroke-width="4" stroke-miterlimit="2" stroke-linecap="round" stroke-linejoin="round"/></svg>
